img/svg/software-licenses/1C.svg

<svg width="28" height="28" viewBox="0 0 28 28" fill="none" xmlns="http://www.w3.org/2000/svg">
<path d="M23.625 5.25C23.8571 5.25 24.0796 5.34219 24.2437 5.50628C24.4078 5.67038 24.5 5.89294 24.5 6.125V19.25H3.5V6.125C3.5 5.89294 3.59219 5.67038 3.75628 5.50628C3.92038 5.34219 4.14294 5.25 4.375 5.25H23.625ZM4.375 3.5C3.67881 3.5 3.01113 3.77656 2.51884 4.26884C2.02656 4.76113 1.75 5.42881 1.75 6.125V21H26.25V6.125C26.25 5.42881 25.9734 4.76113 25.4812 4.26884C24.9889 3.77656 24.3212 3.5 23.625 3.5H4.375ZM0 21.875H28C28 22.5712 27.7234 23.2389 27.2312 23.7312C26.7389 24.2234 26.0712 24.5 25.375 24.5H2.625C1.92881 24.5 1.26113 24.2234 0.768845 23.7312C0.276562 23.2389 0 22.5712 0 21.875H0Z" fill="#030303"/>
<path fill-rule="evenodd" clip-rule="evenodd" d="M26.25 21H1.75V6.125C1.75 5.42881 2.02656 4.76113 2.51884 4.26884C3.01113 3.77656 3.67881 3.5 4.375 3.5H23.625C24.3212 3.5 24.9889 3.77656 25.4812 4.26884C25.9734 4.76113 26.25 5.42881 26.25 6.125V21ZM0.668435 23.625C0.700829 23.6612 0.734306 23.6966 0.768845 23.7312C1.26113 24.2234 1.92881 24.5 2.625 24.5H25.375C26.0712 24.5 26.7389 24.2234 27.2312 23.7312C27.2657 23.6966 27.2992 23.6612 27.3316 23.625C27.5613 23.3682 27.7366 23.0705 27.8499 22.75C27.9483 22.4716 28 22.1759 28 21.875H0C0 22.1759 0.0516798 22.4716 0.150125 22.75C0.263437 23.0705 0.438705 23.3682 0.668435 23.625ZM4.375 5.25C4.14294 5.25 3.92038 5.34219 3.75628 5.50628C3.59219 5.67038 3.5 5.89294 3.5 6.125V19.25H24.5V6.125C24.5 5.89294 24.4078 5.67038 24.2437 5.50628C24.0796 5.34219 23.8571 5.25 23.625 5.25H4.375Z" fill="#030303"/>
<path d="M16.539 8.98047C16.8523 8.98047 17.119 8.99047 17.339 9.01047C17.559 9.0238 17.7623 9.04714 17.949 9.08047C18.1357 9.10714 18.329 9.14714 18.529 9.20047L18.419 10.1305C18.2123 10.1171 18.019 10.1071 17.839 10.1005C17.659 10.0871 17.4657 10.0771 17.259 10.0705C17.059 10.0638 16.819 10.0605 16.539 10.0605C16.1523 10.0605 15.849 10.1371 15.629 10.2905C15.409 10.4438 15.2523 10.7005 15.159 11.0605C15.0723 11.4205 15.029 11.9171 15.029 12.5505C15.029 13.1838 15.0723 13.6805 15.159 14.0405C15.2523 14.4005 15.409 14.6571 15.629 14.8105C15.849 14.9638 16.1523 15.0405 16.539 15.0405C16.9857 15.0405 17.359 15.0338 17.659 15.0205C17.9657 15.0005 18.2657 14.9738 18.559 14.9405L18.669 15.8605C18.369 15.9538 18.059 16.0205 17.739 16.0605C17.419 16.1005 17.019 16.1205 16.539 16.1205C15.8457 16.1205 15.2923 16.0071 14.879 15.7805C14.4657 15.5471 14.1657 15.1705 13.979 14.6505C13.799 14.1305 13.709 13.4305 13.709 12.5505C13.709 11.6705 13.799 10.9705 13.979 10.4505C14.1657 9.93047 14.4657 9.55714 14.879 9.33047C15.2923 9.09714 15.8457 8.98047 16.539 8.98047Z" fill="#030303"/>
<path d="M12.1702 9.10156V16.0016H10.9202V10.8616C10.9202 10.7482 10.9235 10.6349 10.9302 10.5216C10.9435 10.4082 10.9602 10.2949 10.9802 10.1816L9.32016 10.6416L9.16016 9.80156L10.9202 9.10156H12.1702Z" fill="#030303"/>
</svg>

<svg width="28" height="28" fill="none" xmlns="http://www.w3.org/2000/svg"><path d="M23.625 5.25a.875.875 0 01.875.875V19.25h-21V6.125a.875.875 0 01.875-.875h19.25zM4.375 3.5A2.625 2.625 0 001.75 6.125V21h24.5V6.125A2.625 2.625 0 0023.625 3.5H4.375zM0 21.875h28a2.625 2.625 0 01-2.625 2.625H2.625A2.625 2.625 0 010 21.875z" fill="#030303"/><path fill-rule="evenodd" clip-rule="evenodd" d="M26.25 21H1.75V6.125A2.625 2.625 0 014.375 3.5h19.25a2.625 2.625 0 012.625 2.625V21zM.668 23.625a2.625 2.625 0 001.957.875h22.75A2.625 2.625 0 0028 21.875H0a2.624 2.624 0 00.668 1.75zM4.375 5.25a.875.875 0 00-.875.875V19.25h21V6.125a.875.875 0 00-.875-.875H4.375z" fill="#030303"/><path d="M16.539 8.98c.313 0 .58.01.8.03.22.014.423.037.61.07.187.027.38.067.58.12l-.11.93c-.207-.013-.4-.023-.58-.03-.18-.013-.373-.023-.58-.03-.2-.006-.44-.01-.72-.01-.387 0-.69.077-.91.23-.22.154-.377.41-.47.77-.087.36-.13.857-.13 1.49 0 .634.043 1.13.13 1.49.093.36.25.617.47.77.22.154.523.23.91.23.447 0 .82-.006 1.12-.02.307-.02.607-.046.9-.08l.11.92c-.3.094-.61.16-.93.2-.32.04-.72.06-1.2.06-.693 0-1.247-.113-1.66-.34-.413-.233-.713-.61-.9-1.13-.18-.52-.27-1.22-.27-2.1 0-.88.09-1.58.27-2.1.187-.52.487-.893.9-1.12.413-.233.967-.35 1.66-.35zm-4.369.122v6.9h-1.25v-5.14a6.4 6.4 0 01.01-.34c.014-.114.03-.227.05-.34l-1.66.46-.16-.84 1.76-.7h1.25z" fill="#030303"/></svg>
